icons/http.svg

<svg width="16" height="16" viewBox="0 0 16 16" fill="none" xmlns="http://www.w3.org/2000/svg">
<path fill-rule="evenodd" clip-rule="evenodd" d="M5.25485 9.16229C5.22572 8.78515 5.21051 8.39672 5.21051 8C5.21051 7.60328 5.22572 7.21485 5.25485 6.83771H3.01858C2.93181 7.21111 2.88593 7.6002 2.88593 8C2.88593 8.3998 2.93181 8.78889 3.01858 9.16229H5.25485ZM5.434 10.557H3.5701C4.1391 11.5407 5.02631 12.3172 6.09097 12.7459C5.81188 12.1344 5.58674 11.3905 5.434 10.557ZM9.14491 10.557C9.02561 11.1298 8.86965 11.635 8.6905 12.053C8.48239 12.5386 8.27042 12.8424 8.10608 13.0046C8.06043 13.0497 8.0251 13.0778 8 13.0951C7.9749 13.0778 7.93957 13.0497 7.89392 13.0046C7.72958 12.8424 7.51761 12.5386 7.3095 12.053C7.13035 11.635 6.97439 11.1298 6.85509 10.557H9.14491ZM6.65417 9.16229C6.62235 8.79031 6.60525 8.40172 6.60525 8C6.60525 7.59828 6.62235 7.20969 6.65417 6.83771H9.34583C9.37765 7.20969 9.39475 7.59828 9.39475 8C9.39475 8.40172 9.37765 8.79031 9.34583 9.16229H6.65417ZM10.566 10.557C10.4133 11.3905 10.1881 12.1344 9.90903 12.7459C10.9737 12.3172 11.8609 11.5407 12.4299 10.557H10.566ZM12.9814 9.16229H10.7451C10.7743 8.78515 10.7895 8.39672 10.7895 8C10.7895 7.60328 10.7743 7.21485 10.7451 6.83771H12.9814C13.0682 7.21111 13.1141 7.6002 13.1141 8C13.1141 8.3998 13.0682 8.78889 12.9814 9.16229ZM7.3095 3.94699C7.13035 4.36501 6.97439 4.87023 6.85509 5.44296H9.14491C9.02561 4.87023 8.86965 4.36501 8.6905 3.94699C8.48239 3.46142 8.27042 3.15757 8.10608 2.99538C8.06043 2.95034 8.0251 2.92216 8 2.90488C7.9749 2.92216 7.93957 2.95034 7.89392 2.99538C7.72958 3.15757 7.51761 3.46142 7.3095 3.94699ZM10.566 5.44296H12.4299C11.8609 4.45933 10.9737 3.6828 9.90903 3.25414C10.1881 3.86559 10.4133 4.60954 10.566 5.44296ZM3.5701 5.44296H5.434C5.58674 4.60954 5.81188 3.86559 6.09097 3.25414C5.02631 3.6828 4.1391 4.45933 3.5701 5.44296ZM8 1.49118C11.5947 1.49118 14.5088 4.40528 14.5088 8C14.5088 11.5947 11.5947 14.5088 8 14.5088C4.40528 14.5088 1.49118 11.5947 1.49118 8C1.49118 4.40528 4.40528 1.49118 8 1.49118Z" fill="#909090" fill-opacity="0.9"/>
</svg>

<svg xmlns="http://www.w3.org/2000/svg" width="16" height="16" fill="none" viewBox="0 0 16 16"><path fill="#909090" fill-opacity=".9" fill-rule="evenodd" d="M5.255 9.162a15 15 0 0 1 0-2.324H3.019a5.1 5.1 0 0 0 0 2.324zm.179 1.395H3.57a5.13 5.13 0 0 0 2.521 2.189c-.28-.612-.504-1.356-.657-2.189m3.71 0a8 8 0 0 1-.453 1.496c-.209.486-.42.79-.585.952a1 1 0 0 1-.106.09 1 1 0 0 1-.106-.09c-.164-.163-.376-.466-.585-.952a8 8 0 0 1-.454-1.496zm-2.49-1.395a13.7 13.7 0 0 1 0-2.324h2.692a13.7 13.7 0 0 1 0 2.324zm3.912 1.395c-.153.833-.378 1.577-.657 2.189a5.13 5.13 0 0 0 2.52-2.189zm2.415-1.395h-2.236a15 15 0 0 0 0-2.324h2.236a5.1 5.1 0 0 1 0 2.324M7.31 3.947c-.18.418-.336.923-.455 1.496h2.29a8 8 0 0 0-.454-1.496c-.209-.486-.42-.79-.585-.952A1 1 0 0 0 8 2.905a1 1 0 0 0-.106.09c-.164.163-.376.466-.585.952m3.256 1.496h1.864a5.13 5.13 0 0 0-2.521-2.189c.28.612.504 1.356.657 2.189m-6.996 0h1.864c.153-.833.378-1.577.657-2.189a5.13 5.13 0 0 0-2.52 2.189M8 1.491A6.509 6.509 0 1 1 8 14.51 6.509 6.509 0 0 1 8 1.49" clip-rule="evenodd"/></svg>
